packages/kaspersky-hexa-ui-icons/src/iconsSVGs/24/Bluetooth.svg

<svg width="24" height="24" viewBox="0 0 24 24" fill="none" xmlns="http://www.w3.org/2000/svg">
<path fill-rule="evenodd" clip-rule="evenodd" d="M11.5409 2.15882C11.2332 1.96101 10.842 1.947 10.5209 2.12229C10.1998 2.29758 10.0001 2.63419 10.0001 3V10.4648L6.55481 8.16795C6.09528 7.8616 5.47441 7.98577 5.16806 8.4453C4.8617 8.90483 4.98588 9.5257 5.44541 9.83205L8.69733 12L5.44541 14.168C4.98588 14.4743 4.8617 15.0952 5.16806 15.5547C5.47441 16.0142 6.09528 16.1384 6.55481 15.8321L10.0001 13.5352V21C10.0001 21.3658 10.1998 21.7024 10.5209 21.8777C10.842 22.053 11.2332 22.039 11.5409 21.8412L18.5409 17.3412C18.8271 17.1572 19.0001 16.8403 19.0001 16.5C19.0001 16.1597 18.8271 15.8428 18.5409 15.6588L12.8494 12L18.5409 8.34118C18.8271 8.15718 19.0001 7.84026 19.0001 7.5C19.0001 7.15974 18.8271 6.84282 18.5409 6.65882L11.5409 2.15882ZM16.1508 7.5L12.0001 10.1683V4.83167L16.1508 7.5ZM16.1508 16.5L12.0001 13.8317V19.1683L16.1508 16.5Z" fill="black"/>
</svg>

<svg xmlns="http://www.w3.org/2000/svg" width="24" height="24" fill="none" viewBox="0 0 24 24"><path fill="#000" fill-rule="evenodd" d="M11.5407 2.1588A1 1 0 0 0 10 3v7.4648L6.5547 8.1679c-.4595-.3063-1.0804-.1821-1.3868.2774s-.1821 1.0804.2774 1.3868L8.6973 12l-3.252 2.168c-.4595.3063-.5837.9272-.2774 1.3867s.9273.5837 1.3868.2774L10 13.5352V21a1 1 0 0 0 1.5407.8412l7-4.5a1 1 0 0 0 0-1.6824L12.8492 12l5.6915-3.6588a1 1 0 0 0 0-1.6824zm4.61 5.3412L12 10.1683V4.8317zm0 9L12 13.8317v5.3366z"/></svg>
